/* XPM */
static char *dummy[]={
"64 64 2 1",
"# c #001838",
". c #183850",
"....##......######...########.##....##......######...########.##",
".#.......#.#######..##########...#.......#.#######..##########..",
"#..#####...#######.###########.##..#####...#######.###########.#",
".#########..######.###########.#.#########..######.###########.#",
".##########..####..###########...##########..####..###########..",
"############.....##.##########..############.....##.##########..",
"############.##.....##########.#############.##.....##########.#",
"############.#..###...#######..#############.#..###...#######..#",
"############...######..######..#############...######..######..#",
"###########...########...##....############...########...##....#",
"###########..#########......##.############..#########......##.#",
"###########..##########..######.###########..##########..######.",
".#########..###########..#######.#########..###########..#######",
"..#######...###########.########..#######...###########.########",
"......##..#.###########.########......##..#.###########.########",
"...###...#...##########.########...###...#...##########.########",
".######.......########...######..######.......########...######.",
"###########...###.##...##..##..############...###.##...##..##..#",
"############.............#....##############.............#....##",
"#############.#...#######..#..###############.#...#######..#..##",
"#############..#.#########.#.################..#.#########.#.###",
"##############..##########...#################..##########...###",
"##############.############..#################.############..###",
"##############.############..#################.############..###",
"##############.############.##################.############.####",
"#############.#############.#################.#############.####",
"#############.#############..################.#############..###",
"############...############..###############...############..###",
"############...###########..#.##############...###########..#.##",
"###########..##..########.....#############..##..########.....##",
"##########..#.....###..........###########..#.....###..........#",
".########.#..####......####..#...########.#..####......####..#..",
"....##......######...########.##....##......######...########.##",
".#.......#.#######..##########...#.......#.#######..##########..",
"#..#####...#######.###########.##..#####...#######.###########.#",
".#########..######.###########.#.#########..######.###########.#",
".##########..####..###########...##########..####..###########..",
"############.....##.##########..############.....##.##########..",
"############.##.....##########.#############.##.....##########.#",
"############.#..###...#######..#############.#..###...#######..#",
"############...######..######..#############...######..######..#",
"###########...########...##....############...########...##....#",
"###########..#########......##.############..#########......##.#",
"###########..##########..######.###########..##########..######.",
".#########..###########..#######.#########..###########..#######",
"..#######...###########.########..#######...###########.########",
"......##..#.###########.########......##..#.###########.########",
"...###...#...##########.########...###...#...##########.########",
".######.......########...######..######.......########...######.",
"###########...###.##...##..##..############...###.##...##..##..#",
"############.............#....##############.............#....##",
"#############.#...#######..#..###############.#...#######..#..##",
"#############..#.#########.#.################..#.#########.#.###",
"##############..##########...#################..##########...###",
"##############.############..#################.############..###",
"##############.############..#################.############..###",
"##############.############.##################.############.####",
"#############.#############.#################.#############.####",
"#############.#############..################.#############..###",
"############...############..###############...############..###",
"############...###########..#.##############...###########..#.##",
"###########..##..########.....#############..##..########.....##",
"##########..#.....###..........###########..#.....###..........#",
".########.#..####......####..#...########.#..####......####..#.."};
