/* XPM */
static char *dummy[]={
"64 64 10 1",
". c None",
"f c #000000",
"# c #181830",
"e c #404058",
"d c #602800",
"a c #686880",
"b c #9898b0",
"g c #d83890",
"h c #f8b000",
"c c #f8f8f8",
"................................................................",
"................................................................",
"................................................................",
"................................................................",
"................................................................",
"................................................................",
"................................................................",
"................................................................",
"................................................................",
"................................................................",
"................................................................",
"................................................................",
"................................................................",
"................................................................",
"................................................................",
"................................................................",
"................................................................",
"................................................................",
"................................................................",
"................................................................",
"................................................................",
"................................................................",
"................................................................",
"................................................................",
"................................................................",
"................................................................",
"................................................................",
"..................##aabbcc....####......aaaa##..................",
"..................##aabbcc....####......aaaa##..................",
"..................aa####aacc##dddd####eeff##aa..................",
"..................aa####aacc##dddd####eeff##aa..................",
"..................aa##ff##ddccccggdddd##ffffcc..................",
"..................aa##ff##ddccccggdddd##ffffcc..................",
"....................ee##ddggggaaccggggdd##aacc..................",
"....................ee##ddggggaaccggggdd##aacc..................",
"......................##ddgggghhaaccggddaaccaa..................",
"......................##ddgggghhaaccggddaaccaa..................",
"....................##ddgggghhcchhaaccggccaa....................",
"....................##ddgggghhcchhaaccggccaa....................",
"....................##ddgggghhhhhhhhaaccdd##....................",
"....................##ddgggghhhhhhhhaaccdd##....................",
"......................##gggggghhhhggccaacc......................",
"......................##gggggghhhhggccaacc......................",
"......................eeddggggggaaccaaddcc......................",
"......................eeddggggggaaccaaddcc......................",
"....................aaff##ddggaaccaadd####cc....................",
"....................aaff##ddggaaccaadd####cc....................",
"..................aa##ffffaaaaccaa####ffff##cc..................",
"..................aa##ffffaaaaccaa####ffff##cc..................",
"..................aa####aaccccaa##....ee####bb..................",
"..................aa####aaccccaa##....ee####bb..................",
"..................##aabbccaa............aaaa##..................",
"..................##aabbccaa............aaaa##..................",
"................................................................",
"................................................................",
"................................................................",
"................................................................",
"................................................................",
"................................................................",
"................................................................",
"................................................................",
"................................................................",
"................................................................",
"................................................................"};
