/* XPM */
static char *dummy[]={
"64 64 9 1",
". c None",
"e c #000000",
"# c #181830",
"g c #404058",
"c c #686880",
"a c #9898b0",
"d c #b87000",
"f c #f8b000",
"b c #f8f8f8",
"................................................................",
"................................................................",
"................................................................",
"................................................................",
"................................................................",
"................................................................",
"................................................................",
"................................................................",
"................................................................",
"................................................................",
"................................................................",
"................................................................",
"................................................................",
"................................................................",
"................................................................",
"................................................................",
"................................................................",
"................................................................",
"................................................................",
"................................................................",
"................................................................",
"................................................................",
"................................................................",
"................................................................",
"................................................................",
"................................................................",
"................................................................",
"................................................................",
"..................##aaaabb....####......aaaa##..................",
"..................##aaaabb....####......aaaa##..................",
"..................aa####ccbb##dddd####aaee##aa..................",
"..................aa####ccbb##dddd####aaee##aa..................",
"..................aa##ee##ddbbbbffdddd##eeeebb..................",
"..................aa##ee##ddbbbbffdddd##eeeebb..................",
"....................gg##ddffffaabbffffdd##aabb..................",
"....................gg##ddffffaabbffffdd##aabb..................",
"......................##ddffffbbaabbffddaabbcc..................",
"......................##ddffffbbaabbffddaabbcc..................",
"....................##ddffffbbbbbbaabbffbbcc....................",
"....................##ddffffbbbbbbaabbffbbcc....................",
"....................##ddffffbbbbbbbbaabbdd##....................",
"....................##ddffffbbbbbbbbaabbdd##....................",
"......................##ffffffbbbbffbbaabb......................",
"......................##ffffffbbbbffbbaabb......................",
"......................ggddffffffaabbccddbb......................",
"......................ggddffffffaabbccddbb......................",
"....................aaee##ddffaabbccdd####bb....................",
"....................aaee##ddffaabbccdd####bb....................",
"..................aa##eeeeaaaabbcc####eeee##bb..................",
"..................aa##eeeeaaaabbcc####eeee##bb..................",
"..................aa####aabbbbcc##....aa####aa..................",
"..................aa####aabbbbcc##....aa####aa..................",
"..................##aaaabbcc............aaaa##..................",
"..................##aaaabbcc............aaaa##..................",
"................................................................",
"................................................................",
"................................................................",
"................................................................",
"................................................................",
"................................................................",
"................................................................",
"................................................................",
"................................................................",
"................................................................"};
