/* XPM */
static char *dummy[]={
"64 64 13 1",
". c None",
"b c #083020",
"d c #200800",
"# c #205040",
"f c #304028",
"g c #382000",
"a c #389078",
"e c #405838",
"i c #483818",
"j c #605020",
"h c #607850",
"c c #60b8a0",
"k c #907830",
"................................................................",
"................................................................",
"................................................................",
"................................................................",
"................................................................",
"................................................................",
"................................................................",
"................................................................",
".#a##...#a#b..b#.#a##...#a#b..b#.#a##...#a#b..b#.#a##...#a#b..b#",
"#c#baa.#ac###b#a#c#baa.#ac###b#a#c#baa.#ac###b#a#c#baa.#ac###b#a",
"#abbc#bbacbadba##abbc#bbacbadba##abbc#bbacbadba##abbc#bbacbadba#",
"#badcadbbcd#b#cb#badcadbbcd#b#cb#badcadbbcd#b#cb#badcadbbcd#b#cb",
"bbcdacdadaabcbabbbcdacdadaabcbabbbcdacdadaabcbabbbcdacdadaabcbab",
"#badbabcb#c#c#ab#badbabcb#c#c#ab#badbabcb#c#c#ab#badbabcb#c#c#ab",
"ab#aba#bcdba#c#bab#aba#bcdba#c#bab#aba#bcdba#c#bab#aba#bcdba#c#b",
"ab#ad#cbabec#afbab#ad#cbabdc#adbab#ad#cbabdc#adbab#ad#cbabdc#adb",
"#babdfcda#fcb#fd#babddcda#dcb#dd#babddcda#dcb#dd#babddcda#dcb#dd",
"g#dgdfabgbfadbbdf#dfddabgbeadbddf#dbddabhbdadbddg#dgddabgbdadbdd",
"gdggge#hgdbagbbbedefgd#hgdhaggibfdbgbd#dedeafeibgdgggd#dgdhaggib",
"iiiighbeigb#gbbeheffggdeigf#giiiefbibgdehef#gfiiiiiighdeigf#giii",
"ijijihieigibgbfeheifigieigibgiiihbbjigfeheibgfifijijihieigibgiii",
"jiiijeifjijgijehefifjiifjijgijijfbbijiehefjgibiejiiijeifjijgijij",
"ijjjkfjfkjkjifehefjfkjjfkjkjijjjfjfjkffhefkjijjeijjjkfjfkjkjijjj",
"ijkkkfkbkkjkkfeefbkkkjkbkkjkkjjjbjekkeeffffkkjjfijkkkfkbkkjkkjjj",
"jkjkkekbjkjkfeeebbjkkikbjkjkkikkjkekkehefefkkikfjkjkkekbjkjkkikk",
"kkjikhikkkjifhefbfbikkikkkjikkikkkfikehhfefikkifkkjikhikkkjikkik",
"kjkkjekjkjkkfhebbffkjjkjkjkkjjkjkjbkjfhebfefjjkbkjkkjekjkjkkjjkj",
"jkjjkfkkjkjjehekfffjkikkjkjjkikkjkbjkehfjfefkikhjkjjkfkkjkjjkikk",
"jikikfjkjikiehekfefbkkjkjikikkjkjikikehejfefkkjejikikfjkjikikkjk",
"jkjkjjkjjkjkehfjfefkjjkjjkjkjjkjjkjkjehfjfefjjkjjkjkjjkjjkjkjjkj",
"kjkjjkjkkjkjfhfkbebjjkjkkjkjjkjkkjkjjfhfkbebjkjkkjkjjkjkkjkjjkjk",
"jjjkjjkkjjjkfhekbejkjjkkjjjkjjkkjjjkjfhejbekjjkkjjjkjjkkjjjkjjkk",
"jkijkkkjjkijfeejjfijkkkjjkkkjkkjjkijkfeejkfjkkkjjkijkkkjjkkkjkkj",
"kijkkijkkijkffhkkejkkijkkjjkijjkkijkkffhkiekkijkkijkkijkkjjkijjk",
"kjkkikkikjkkebhikhkkikkijkkjkjkjkjkkiebhkjhkikkikjkkikkijkkjkjkj",
"jkkikkijjkkihbejjfkikkijjjkkjkjkjkkikhbejkfikkijjkkikkijjjkkjkjk",
"kkikkikkkkikhiekkkikkikkkkikjikjkkikkhkekkikkikkkkikkikkkkikjikj",
"kikkjkkjkikkekfjkikkjkkjjkkjkkjjkikkjekfkikkjkkjkikkjkkjjkkjkkjj",
"ikjjkkikikjjfkfkikjjkkikkikkjkkjikjjkfifikjjkkikikjjkkikkikkjkkj",
"jjkkkikkjjkkfibkjjkkkikkjkijkjjkjjkkkfkbjjkkkikkjjkkkikkjkijkjjk",
"kkjkkjkjkkjkekbkjkijkkkjkjkkjkkjkkjkkekbkkjkkkjkjkijkkkjkjkkjkkj",
"jkkjkkkkjkkkhkkjkijkkijkjkjjkijkjkkjkhkkjkkkjkkjkijkkijkjkjjkijk",
"kkjkkjjkkjkkekjkkjkkikkikikkjjkjkkjkkejkkjkkkkjkkjkkikkikikkjjkj",
"kkkjkkkkkkkjfkjkjkkikkijkjikkkjkkkkjkfkkkkkjkkjkjkkikkijkjikkkjk",
"kjkkkjkjkjkkfkkjkkikkikkjkkikjkjkjkkkfkjkjkkjkkjkkikkikkjkkikjkj",
"jkjkkkjkjkkkkjjkkikkjkkjkjjkjkijjkjkkkjkjkkkkjjkkikkjkkjkjjkjkij",
"jkkkjkjkjkjkjkkkikjjkkikkkikjkkjjkkkjkjkjkjkjkkkikjjkkikkkikjkkj",
"kjkjkjkjkjkjkjkjjjkkkikkkjkikjjkkjkjkjkjkjkjkjkjjjkkkikkkjkikjjk",
"jkijkkkjjkkkjkkjjkijkkkjjkijkkkjjkijkkkjjkkkjkkjjkijkkkjjkijkkkj",
"kijkkijkkjjkijjkkijkkijkkijkkijkkijkkijkkjjkijjkkijkkijkkijkkijk",
"kjkkikkijkkjkjkjkjkkikkikjkkikkikjkkikkijkkjkjkjkjkkikkikjkkikki",
"jkkikkijjjkkjkjkjkkikkijjkkikkijjkkikkijjjkkjkjkjkkikkijjkkikkij",
"kkikkikkkkikjikjkkikkikkkkikkikkkkikkikkkkikjikjkkikkikkkkikkikk",
"kikkjkkjjkkjkkjjkikkjkkjkikkjkkjkikkjkkjjkkjkkjjkikkjkkjkikkjkkj",
"ikjjkkikkikkjkkjikjjkkikikjjkkikikjjkkikkikkjkkjikjjkkikikjjkkik",
"jjkkkikkjkijkjjkjjkkkikkjjkkkikkjjkkkikkjkijkjjkjjkkkikkjjkkkikk",
"jkijkkkjkjkkjkkjkkjkkjkjkkjkkkjkjkijkkkjkjkkjkkjkkjkkjkjkkjkkkjk",
"kijkkijkjkjjkijkjkkjkkkkjkkkjkkjkijkkijkjkjjkijkjkkjkkkkjkkkjkkj",
"kjkkikkikikkjjkjkkjkkjjkkjkkkkjkkjkkikkikikkjjkjkkjkkjjkkjkkkkjk",
"jkkikkijkjikkkjkkkkjkkkkkkkjkkjkjkkikkijkjikkkjkkkkjkkkkkkkjkkjk",
"kkikkikkjkkikjkjkjkkkjkjkjkkjkkjkkikkikkjkkikjkjkjkkkjkjkjkkjkkj",
"kikkjkkjkjjkjkijjkjkkkjkjkkkkjjkkikkjkkjkjjkjkijjkjkkkjkjkkkkjjk",
"ikjjkkikkkikjkkjjkkkjkjkjkjkjkkkikjjkkikkkikjkkjjkkkjkjkjkjkjkkk",
"jjkkkikkkjkikjjkkjkjkjkjkjkjkjkjjjkkkikkkjkikjjkkjkjkjkjkjkjkjkj"};
