/* XPM */
static char *dummy[]={
"64 64 10 1",
". c None",
"b c #083020",
"d c #200800",
"# c #205040",
"e c #382000",
"a c #389078",
"f c #483818",
"g c #605020",
"c c #60b8a0",
"h c #907830",
"................................................................",
"................................................................",
"................................................................",
"................................................................",
"................................................................",
"................................................................",
"................................................................",
"................................................................",
".#a##...#a#b..b#.#a##...#a#b..b#.#a##...#a#b..b#.#a##...#a#b..b#",
"#c#baa.#ac###b#a#c#baa.#ac###b#a#c#baa.#ac###b#a#c#baa.#ac###b#a",
"#abbc#bbacbadba##abbc#bbacbadba##abbc#bbacbadba##abbc#bbacbadba#",
"#badcadbbcd#b#cb#badcadbbcd#b#cb#badcadbbcd#b#cb#badcadbbcd#b#cb",
"bbcdacdadaabcbabbbcdacdadaabcbabbbcdacdadaabcbabbbcdacdadaabcbab",
"#badbabcb#c#c#ab#badbabcb#c#c#ab#badbabcb#c#c#ab#badbabcb#c#c#ab",
"ab#aba#bcdba#c#bab#aba#bcdba#c#bab#aba#bcdba#c#bab#aba#bcdba#c#b",
"ab#ad#cbabdc#adbab#ad#cbabdc#adbab#ad#cbabdc#adbab#ad#cbabdc#adb",
"#babddcda#dcb#dd#babddcda#dcb#dd#babddcda#dcb#dd#babddcda#dcb#dd",
"e#deddabebdadbdde#deddabebdadbdde#deddabebdadbdde#deddabebdadbdd",
"edeeed#dedeaeefbedeeed#dedeaeefbedeeed#dedeaeefbedeeed#dedeaeefb",
"ffffeedefef#efffffffeedefef#efffffffeedefef#efffffffeedefef#efff",
"fgfgfefefefbeffffgfgfefefefbeffffgfgfefefefbeffffgfgfefefefbefff",
"gfffgfffgfgefgfggfffgfffgfgefgfggfffgfffgfgefgfggfffgfffgfgefgfg",
"fggghggghghgfgggfggghggghghgfgggfggghggghghgfgggfggghggghghgfggg",
"fghhhghhhhghhgggfghhhghhhhghhgggfghhhghhhhghhgggfghhhghhhhghhggg",
"ghghhfhhghghhfhhghghhfhhghghhfhhghghhfhhghghhfhhghghhfhhghghhfhh",
"hhgfhhfhhhgfhhfhhhgfhhfhhhgfhhfhhhgfhhfhhhgfhhfhhhgfhhfhhhgfhhfh",
"hghhgghghghhgghghghhgghghghhgghghghhgghghghhgghghghhgghghghhgghg",
"ghgghfhhghgghfhhghgghfhhghgghfhhghgghfhhghgghfhhghgghfhhghgghfhh",
"gfhfhhghgfhfhhghgfhfhhghgfhfhhghgfhfhhghgfhfhhghgfhfhhghgfhfhhgh",
"ghghgghgghghgghgghghgghgghghgghgghghgghgghghgghgghghgghgghghgghg",
"hghgghghhghgghghhghgghghhghgghghhghgghghhghgghghhghgghghhghgghgh",
"ggghgghhggghgghhggghgghhggghgghhggghgghhggghgghhggghgghhggghgghh",
"ghfghhhgghfghhhgghfghhhgghhhghhgghfghhhgghfghhhgghfghhhgghhhghhg",
"hfghhfghhfghhfghhfghhfghhgghfgghhfghhfghhfghhfghhfghhfghhgghfggh",
"hghhfhhfhghhfhhfhghhfhhfghhghghghghhfhhfhghhfhhfhghhfhhfghhghghg",
"ghhfhhfgghhfhhfgghhfhhfggghhghghghhfhhfgghhfhhfgghhfhhfggghhghgh",
"hhfhhfhhhhfhhfhhhhfhhfhhhhfhgfhghhfhhfhhhhfhhfhhhhfhhfhhhhfhgfhg",
"hfhhghhghfhhghhghfhhghhgghhghhgghfhhghhghfhhghhghfhhghhgghhghhgg",
"fhgghhfhfhgghhfhfhgghhfhhfhhghhgfhgghhfhfhgghhfhfhgghhfhhfhhghhg",
"gghhhfhhgghhhfhhgghhhfhhghfghgghgghhhfhhgghhhfhhgghhhfhhghfghggh",
"hhghhghghhghhhghghfghhhghghhghhghhghhghghhghhhghghfghhhghghhghhg",
"ghhghhhhghhhghhghfghhfghghgghfghghhghhhhghhhghhghfghhfghghgghfgh",
"hhghhgghhghhhhghhghhfhhfhfhhgghghhghhgghhghhhhghhghhfhhfhfhhgghg",
"hhhghhhhhhhghhghghhfhhfghgfhhhghhhhghhhhhhhghhghghhfhhfghgfhhhgh",
"hghhhghghghhghhghhfhhfhhghhfhghghghhhghghghhghhghhfhhfhhghhfhghg",
"ghghhhghghhhhgghhfhhghhghgghghfgghghhhghghhhhgghhfhhghhghgghghfg",
"ghhhghghghghghhhfhgghhfhhhfhghhgghhhghghghghghhhfhgghhfhhhfhghhg",
"hghghghghghghghggghhhfhhhghfhgghhghghghghghghghggghhhfhhhghfhggh",
"ghfghhhgghhhghhgghfghhhgghfghhhgghfghhhgghhhghhgghfghhhgghfghhhg",
"hfghhfghhgghfgghhfghhfghhfghhfghhfghhfghhgghfgghhfghhfghhfghhfgh",
"hghhfhhfghhghghghghhfhhfhghhfhhfhghhfhhfghhghghghghhfhhfhghhfhhf",
"ghhfhhfggghhghghghhfhhfgghhfhhfgghhfhhfggghhghghghhfhhfgghhfhhfg",
"hhfhhfhhhhfhgfhghhfhhfhhhhfhhfhhhhfhhfhhhhfhgfhghhfhhfhhhhfhhfhh",
"hfhhghhgghhghhgghfhhghhghfhhghhghfhhghhgghhghhgghfhhghhghfhhghhg",
"fhgghhfhhfhhghhgfhgghhfhfhgghhfhfhgghhfhhfhhghhgfhgghhfhfhgghhfh",
"gghhhfhhghfghgghgghhhfhhgghhhfhhgghhhfhhghfghgghgghhhfhhgghhhfhh",
"ghfghhhghghhghhghhghhghghhghhhghghfghhhghghhghhghhghhghghhghhhgh",
"hfghhfghghgghfghghhghhhhghhhghhghfghhfghghgghfghghhghhhhghhhghhg",
"hghhfhhfhfhhgghghhghhgghhghhhhghhghhfhhfhfhhgghghhghhgghhghhhhgh",
"ghhfhhfghgfhhhghhhhghhhhhhhghhghghhfhhfghgfhhhghhhhghhhhhhhghhgh",
"hhfhhfhhghhfhghghghhhghghghhghhghhfhhfhhghhfhghghghhhghghghhghhg",
"hfhhghhghgghghfgghghhhghghhhhgghhfhhghhghgghghfgghghhhghghhhhggh",
"fhgghhfhhhfhghhgghhhghghghghghhhfhgghhfhhhfhghhgghhhghghghghghhh",
"gghhhfhhhghfhgghhghghghghghghghggghhhfhhhghfhgghhghghghghghghghg"};
