/* XPM */
static char *dummy[]={
"32 32 24 1",
". c None",
"e c None",
"l c #000000",
"d c #204020",
"g c #33331a",
"j c #0f2009",
"s c #112009",
"t c #050504",
"f c #000000",
"q c #030502",
"u c #060b03",
"n c #091005",
"p c #0d1907",
"v c #101f08",
"a c #102008",
"m c #112109",
"r c #1b2b13",
"h c #1d2d15",
"k c #25351d",
"o c #26361e",
"# c #283820",
"i c #293921",
"b c #385028",
"c c #506840",
"................................",
"................................",
"................................",
"................................",
"................................",
"................................",
"................................",
"................................",
"................................",
"................................",
"................................",
"................................",
"................................",
"................................",
"................................",
"................................",
"...................#a...........",
"...................ba...........",
"...............a..aca...........",
"..............a..d#ca.a..e......",
"..........a...af.g#c#.a..e......",
"..........a...affbc#..aa.e......",
"..........#a..af#bb#..aa........",
"..........b...afbc#a..fa........",
"..........c#..aabca...a#........",
"..........bc#.hcia..a##.........",
".........#c#ajkb#al.ab#.........",
".........ab#aam#aala#ba.........",
"..........#baanoa.aab#..........",
"...........a#apqrsa##a..........",
"............a#aaaaba............",
".............atuvka............."};
