/* XPM */
static char *small_font_red_xpm[]={
"760 8 3 1",
". c None",
"# c #aa1413",
"a c #f8f8f8",
"..........####...######..#####...##############..#####....###.....####...####.....###.....###..............................###...######...####..#######.#######...#####.########.######.########.######..######...####....####....####...........####...#######..######..######.#######..######.#######.################.######.########.######.....#######.########....####.######.####.######.#######..######.#######..###############################################################..####...###......####....###............###.....######.#######..######.#######.################.######.########.######.....#######.########....####.######.####.######.#######..######.#######..###############################################################..####....###....####...........",
"..........#aa#...#a##a#.##a#a##.##aaaaa###aa#a#.##aaa#....#a#....##aa#...#aa##..###a###...#a#..............................#a#..##aaaa##.##aa#..#aaaaa###aaaaa##.##aaa#.#aaaaa####aaaa#.#aaaaaa###aaaa####aaaa##..#aa#....#aa#...##aa#...######..#aa##..#aaaaa####aaaa####aaaa###aaaaa####aaaa###aaaaa###aaaaaa##aaaaaa###aaaa#.#aa##aa#.#aaaa#.....#aa##aa##aa##aa#....#aa#.#aa#a###aa###aaaa###aaaaa####aaaa###aaaaa####aaaaa##aaaaaa##aa##aa##aa##aa#aa#aa#aa#aa##aa##aa##aa##aaaaaa#..#aa#...#a#......#aa#...##a##...........#a##...##aaaa###aaaaa####aaaa###aaaaa###aaaaaa##aaaaaa###aaaa#.#aa##aa#.#aaaa#.....#aa##aa##aa##aa#....#aa#.#aa#a###aa###aaaa###aaaaa####aaaa###aaaaa####aaaaa##aaaaaa##aa##aa##aa##aa#aa#aa#aa#aa##aa##aa##aa##aaaaaa#..#aa#....#a#....#aa#...........",
"..........#aa#...#a##a#.#aaaaa#.#a#a#####a##a##.#a####....#a#....#aa##...##aa#..#aaaaa#.###a###..........######...........##a#..#aa##aa#.#aaa#...####aa######aa###a#aa#.#aa####.#aa####.#####aa##aa##aa##aa##aa#..#aa#....#aa#..##aa##...#aaaa#..##aa##.#####aa##a####a##aa##aa##aa##aa##aa##aa##aa##aa##aa######aa######aa######aa##aa#.##aa##.....#aa##aa#aa###aa#....#aaa#aaa#aa##aa##aa##aa##aa##aa##aa##aa##aa##aa##aa########aa####aa##aa##aa##aa#aa#aa#aa#aa##aa##aa##aa#.####aa#..#a##...#a##.....##a#..##aaa##..........##a#...#aa##aa##aa##aa##aa##aa##aa##aa##aa######aa######aa######aa##aa#.##aa##.....#aa##aa#aa###aa#....#aaa#aaa#aa##aa##aa##aa##aa##aa##aa##aa##aa##aa##aa########aa####aa##aa##aa##aa#aa#aa#aa#aa##aa##aa##aa#.####aa#.##a##....#a#....##a##...#######",
"..........#aa#...######.##a#a##.##aaaa####aa######aaa##...###....#aa#.....#aa#..##aaa##.#aaaaa#...####...#aaaa#...####....#a##..#aa##aa#.##aa#..##aaaa##.#aaaa###a##aa###aaaaa###aaaaa##..##aa####aaaa####aaaaa#..####....####..#aa##....######...##aa#..##aaa###a#aa#a##aaaaaa##aaaaa###aa######aa##aa##aaaaa#.#aaaaa#.#aa#aaa##aaaaaa#..#aa#..#####aa##aaaa##.#aa#....#aa#a#aa#aaa#aa##aa##aa##aaaaa###aa##aa##aaaaa####aaa###..#aa#..#aa##aa##aa##aa#aa#aa#aa##aaaa####aaaa####aaaa##..#a#....##a#......#a#..#aa#aa#...........###...#aaaaaa##aaaaa###aa######aa##aa##aaaaa#.#aaaaa#.#aa#aaa##aaaaaa#..#aa#..#####aa##aaaa##.#aa#....#aa#a#aa#aaa#aa##aa##aa##aaaaa###aa##aa##aaaaa####aaa###..#aa#..#aa##aa##aa##aa#aa#aa#aa##aaaa####aaaa####aaaa##.#aa#.....#a#.....#aa#..##aa##a#",
"..........#aa#..........#aaaaa#.###a#aa#####aa###a###a##.........#aa##...##aa#...#a#a#..###a###...#aa#...######...#aa#...##a#...#aa##aa#..#aa#..#aa##########aa##aaaaaa######aa##aa##aa#..#aa##.#aa##aa#.####aa#..#aa#....#aa#..##aa##...#aaaa#..##aa##..#aa###.#a#a#aa##aa##aa##aa##aa##aa##aa##aa##aa##aa######aa####.#aa##aa##aa##aa#.##aa##.#aa##aa##aaaaa#.#aa######aa#a#aa#aa#aaa##aa##aa##aa####.#aa##aa##aa##aa#####aaa#..#aa#..#aa##aa##aa#aa##aa#aa#aa#aa##aa#.##aa##.#aa####...#a##....#a##....##a#..#a###a#..######.........#aa##aa##aa##aa##aa##aa##aa##aa##aa######aa####.#aa##aa##aa##aa#.##aa##.#aa##aa##aaaaa#.#aa######aa#a#aa#aa#aaa##aa##aa##aa####.#aa##aa##aa##aa#####aaa#..#aa#..#aa##aa##aa#aa##aa#aa#aa#aa##aa#.##aa##.#aa####..##a##....#a#....##a##..#a##aa##",
"..........####..........##a#a##.#aaaaa##.##a##a###aaa#a#.........##aa#...#aa##...#####....#a#.....##a#............#aa#...#a##...##aaaa##..#aa#..#aaaaaa##aaaaa######aa###aaaaa####aaaa##..#aa#..##aaaa##.#aaaa##..#aa#....##a#...##aa#...######..#aa##...####...#a#aaa###aa##aa##aaaaa####aaaa###aaaaa###aaaaaa##aa#....##aaaaa##aa##aa#.#aaaa#.##aaaa###aa##aa##aaaaaa##aa###aa#aa###a###aaaa###aa#....##aaaa###aa##aa##aaaaa##..#aa#..##aaaa###aaaa##.aaaaaaa##aa##aa#..#aa#..#aaaaaa#..#aa#....##a#....#aa#..###.###..#aaaa#.........#aa##aa##aaaaa####aaaa###aaaaa###aaaaaa##aa#....##aaaaa##aa##aa#.#aaaa#.##aaaa###aa##aa##aaaaaa##aa###aa#aa###a###aaaa###aa#....##aaaa###aa##aa##aaaaa##..#aa#..##aaaa###aaaa##.aaaaaaa##aa##aa#..#aa#..#aaaaaa#..#aa#....#a#....#aa#...#######.",
"..........#aa#...........#####..###a###..#a#aa##.#######..........####...####.............###.....#a##............####...#a#.....######...####..###############....####.#######..######...####...######..######...####....#a##....####...........####....#aa#...#######.###############..######.#######.############.....###############.######..######.####################.#######.###.######.####.....###aaa################...####...######.######..################..####..########..####.....#a#....####...........######.........###############..######.#######.############.....###############.######..######.####################.#######.###.######.####.....###aaa################...####...######.######..################..####..########..####....###....####...........",
"..........####....................###....#######..................................................###....................###..............................................................................................###............................####..............................................................................................................................................#####...................................................................................###.....................................................................................................................................................................#####........................................................................................................"};
