/* XPM */
static char *dummy[]={
"64 64 12 1",
"j c #080010",
"a c #281838",
". c #482058",
"g c #483050",
"h c #684878",
"e c #703878",
"i c #787090",
"c c #9088a8",
"# c #984898",
"b c #b0a8c8",
"d c #d060c8",
"f c #d8d0f0",
"...#....a.#a.#.abcdbbddb##...a.a...#....a.#a.#.abcdbbddb##...a.a",
"dd#e.eddedddd#eacdbdd#ddddddd#.ddd#e.eddedddd#eacdbdd#ddddddd#.d",
"d#ff#fdfdd###d#.#e##ee##dfd#.eddd#ff#fdfdd###d#.#e##ee##dfd#.edd",
"#e#ddd####ee###ed#de#eee###..##e#e#ddd####ee###ed#de#eee###..##e",
"eee####eeee#eee.#ee#eee##eee#ee#eee####eeee#eee.#ee#eee##eee#ee#",
"ee#eedd#.eeeee.a#dee.eeeee..##eeee#eedd#.eeeee.a#dee.eeeee..##ee",
"eeeded..#e.eeee.dbdeeee.ee###eeeeeeded..#e.eeee.dbdeeee.ee###eee",
"eee#e#..eeee.e..#d#eed#eee##e#eeeee#e#..eeee.e..#d#eed#eee##e#ee",
"e.eeeeee..ede..ged##e#eeeeedd.eee.eeeeee..ede..ged##e#eeeeedd.ee",
"eeeeee.e.e#eeeagb#de#eeeeee#...eeeeeee.e.e#eeeagb#de#eeeeee#...e",
"ee#eeddee#e.e..hfdede.ee.eee..eeee#eeddee#e.e..hfdede.ee.eee..ee",
"ed#ed#..eeeeeecic#d#eeee...eeeeeed#ed#..eeeeeecic#d#eeee...eeeee",
"#eeeee.e.ee.e..fbfee#e.e#....eee#eeeee.e.ee.e..fbfee#e.e#....eee",
"eeddd..eea.e..ibfc#eeee.ee##..eeeeddd..eea.e..ibfc#eeee.ee##..ee",
".....a....a..ibfbfc#e.......aaa......a....a..ibfbfc#e.......aaa.",
"..aa.j..ajhiccbbbbbci.j..j...a.j..aa.j..ajhiccbbbbbci.j..j...a.j",
"a......#.##...a....#....a.#a.#.a......#.##...a.a...#....a.#a.#.a",
"a.#ddddddddddd#.dd#e.eddedddd#ea.#ddddddddddd#.ddd#e.eddedddd#ea",
".#d#ffffddfd#.edd#ff#fdfdd###d#.#d#ffffddfd#.eddd#ff#fdfdd###d#.",
"ed#f########..###e#ddd####ee###ed#f########..##e#e#ddd####ee###e",
".d#f##eee#eee#eeeee####eeee#eee.d#f##eee#eee#ee#eee####eeee#eee.",
"addd#e#eeee..##eee#eedd#.eeeee.addd#e#eeee..##eeee#eedd#.eeeee.a",
".d#f##de.ee###eeeeeded..#e.eeee.d#f##de.ee###eeeeeeded..#e.eeee.",
".##d#ee.eee##e#eeee#e#..eeee.e..##d#ee.eee##e#eeeee#e#..eeee.e..",
"ae#fde##eeeedd.ee.eeeeee..ede..ged##e#eeeeedd.eee.eeeeeeeeeee#ea",
"j.#df##.eeee#...eeeeee.e.e#eeeagb#de#eeeeee#...eeeeeee.eee#.ee.j",
"aedf#e.ee.eee..eee#eeddee#e.e..hfdede.ee.eee..eeee#eedde#d..eeea",
".d#d#ee.e...eeeeed#ed#..eeeeeecic#d#eeee...eeeeeed#ed#..eeeeeee.",
".d#f#eea.#....ee#eeeee.e.ee.e..fbfee#e.e#....eee#eeeee.eeeede...",
"a#e#ddd.eee##..eeeddd..eea.e..ibfc#eeee.ee##..eeeeddd..e...#...a",
"je.....a.....aaa.....a....a..ibfbfc#e.......aaa......a...j....aj",
"j..a..#ja.j...a...aa.j..ajhiccbbbbbci.j..j...a.j..aa.j...#j..ajj",
"...#....ebdehibbbbbbbcbbbbbbbbbbbbbbbcbbbbbbbbbbbcdbbddb##...a.a",
"dd#e.edddd##ehcbbbfbbbbffbbfbbbbbbfbbbbffbbfbbbbcdbdd#ddddddd#.d",
"d#ff#fdf##ee#eicfbbffffbbbfffbfbfbbffffbbbfffbfb#e##ee##dfd#.edd",
"#e#ddd##eee#e.giffffbebffff.bfffffffbebfffbdbfffd#de#eee###..##e",
"eee####e.eee.e.hfb#ed#eb..dfebfbfb#ed#ebeeeeebff#ee#eee##eee#ee#",
"ee#eedd#.ee.e.agee#eebde.#eeeebeee#eebde##eeeeb.#dee.eeeee..##ee",
"eeeded..eeeee..aeeeeeee..eeeeeeeeeeeeee.ee#eee.jdbdeeee.ee###eee",
"eee#e#..e..e.e.je.eeee.eeeee#eeee.eeee.eeeede#e.#d#eed#eee##e#ee",
"e.eeeeeeeeeee#eae#fde##eeeedd.eee.eeeeeeeeeee#eae#fde##eeeedd.ee",
"eeeeee.eee#.ee.j.#df##.eeee#...eeeeeee.eee#.ee.j.#df##.eeee#...e",
"ee#eedde#d..eeeaedf#e.ee.eee..eeee#eedde#d..eeeaedf#e.ee.eee..ee",
"ed#ed#..eeeeeee.d#d#ee.e...eeeeeed#ed#..eeeeeee.d#d#ee.e...eeeee",
"#eeeee.eeeede...d#f#eea.#....eee#eeeee.eeeede...d#f#eea.#....eee",
"eeddd..e...#...a#e#ddd.eee##..eeeeddd..e...#...a#e#ddd.eee##..ee",
".....a...j....aje.....a.....aaa......a...j....aje.....a.....aaa.",
"..aa.j...#j..ajj..a..#ja.j...a.j..aa.j...#j..ajj..a..#ja.j...a.j",
"......#.##...a.a...#....a.#a.#.abcdbbddb##...a.a...#....a.#a.#.a",
".#ddddddddddd#.ddd#e.eddedddd#eacdbdd#ddddddd#.ddd#e.eddedddd#ea",
"#d#ffffddfd#.eddd#ff#fdfdd###d#.#e##ee##dfd#.eddd#ff#fdfdd###d#.",
"d#f########..##e#e#ddd####ee###ed#de#eee###..##e#e#ddd####ee###e",
"d#f##eee#eee#ee#eee####eeee#eee.#ee#eee##eee#ee#eee####eeee#eee.",
"ddd#e#eeee..##eeee#eedd#.eeeee.a#dee.eeeee..##eeee#eedd#.eeeee.a",
"d#f##de.ee###eeeeeeded..#e.eeee.dbdeeee.ee###eeeeeeded..#e.eeee.",
"##d#ee.eee##e#eeeee#e#..eeee.e..#d#eed#eee##e#eeeee#e#..eeee.e..",
"e.eeee.eeeee#eeee.eeee.eeeede#e.ed##e#eeeeedd.eee.eeeeee..ede..g",
"eeeeeee..eeeeeeeeeeeeee.ee#eee.jb#de#eeeeee#...eeeeeee.e.e#eeeag",
"ee#eebde.#eeeebeee#eebde##eeeeb.fdede.ee.eee..eeee#eeddee#e.e..h",
"fb#ed#eb..dfebfbfb#ed#ebeeeeebffc#d#eeee...eeeeeed#ed#..eeeeeeci",
"ffffbebffff.bfffffffbebfffbdbfffbfee#e.e#....eee#eeeee.e.ee.e..f",
"fbbffffbbbfffbfbfbbffffbbbfffbfbfc#eeee.ee##..eeeeddd..eea.e..ib",
"bbfbbbbffbbfbbbbbbfbbbbffbbfbbbbbfc#e.......aaa......a....a..ibf",
"bbbbbcbbbbbbbbbbbbbbbcbbbbbbbbbbbbbci.j..j...a.j..aa.j..ajhiccbb"};
