/* XPM */
static char *dummy[]={
"64 64 116 2",
"#v c #cececf",
".z c #d8d8d9",
"#K c #d8d9d9",
"#h c #d9d9d8",
".w c #dadada",
".7 c #dadadb",
".O c #dadbda",
".v c #dadbdb",
".R c #dbdada",
"#G c #dbdadb",
".E c #dbdbda",
".H c #dbdbdb",
"#l c #dcdcdc",
".0 c #dcdcdd",
"#B c #dcdddd",
".8 c #dddcdc",
"Qt c #dddcdd",
".9 c #dddddc",
".k c #dddddd",
"#T c #dededf",
"#W c #dedfde",
"#w c #dedfdf",
"#p c #dfdfde",
".P c #dfdfdf",
".t c #e0e0e0",
".n c #e0e0e1",
".y c #e0e1e0",
".e c #e0e1e1",
".4 c #e1e0e0",
".F c #e1e0e1",
"#x c #e1e1e0",
".u c #e1e1e1",
".h c #e2e2e2",
".3 c #e2e3e2",
"#. c #e2e3e3",
"#M c #e3e2e3",
".A c #e3e3e2",
"#u c #e3e3e3",
"#i c #e4e5e5",
".U c #e5e4e4",
"#J c #e5e4e5",
".K c #e5e5e4",
"#L c #e5e5e5",
"#D c #e6e7e7",
"#U c #e7e6e7",
"## c #e7e7e6",
"#A c #e7e7e7",
"#r c #e8e8e8",
"#s c #e8e8e9",
".1 c #e8e9e8",
"#n c #e8e9e9",
".D c #e9e8e8",
".p c #e9e8e9",
".x c #e9e9e8",
".6 c #eaeaeb",
"#S c #eaebea",
".f c #ebebeb",
".o c #ececec",
"#k c #ececed",
".Y c #ecedec",
".S c #eceded",
"#j c #edecec",
"#N c #edeced",
"#c c #ededec",
"#R c #eeeeee",
"#d c #eeeeef",
".N c #eeefef",
".G c #efeeee",
".# c #efeeef",
"#P c #efefee",
".c c #efefef",
".W c #f0f0f1",
"#f c #f0f1f1",
".B c #f1f0f0",
".s c #f1f0f1",
".J c #f1f1f0",
".r c #f1f1f1",
"#V c #f2f2f2",
"#O c #f2f2f3",
".C c #f2f3f2",
".i c #f2f3f3",
"#e c #f3f2f2",
".q c #f3f2f3",
"#z c #f3f3f3",
".l c #f4f4f4",
"#H c #f4f4f5",
".I c #f4f5f4",
"#t c #f5f4f4",
".b c #f5f5f4",
".Z c #f5f5f5",
"#X c #f6f6f6",
"#o c #f6f7f7",
"#Q c #f7f6f7",
".5 c #f7f7f6",
"#q c #f7f7f7",
".T c #f8f8f8",
"#F c #f8f8f9",
"#g c #f8f9f8",
".m c #f8f9f9",
"#E c #f9f8f8",
"#m c #f9f8f9",
".V c #f9f9f9",
"#C c #fafafa",
"#b c #fafafb",
".Q c #fafbfa",
".g c #fafbfb",
"#y c #fbfbfa",
"#I c #fbfbfb",
".d c #fcfcfc",
".M c #fcfcfd",
".X c #fcfdfc",
"#a c #fdfdfc",
".2 c #fdfdfd",
".L c #fefefe",
".j c #fefffe",
".a c #fffeff",
"QtQt.#.#.a.a.b.b.c.c.d.d.e.e.f.f.g.g.h.h.i.i.j.j.k.k.l.l.m.m.n.nQtQt.#.#.a.a.b.b.c.c.d.d.e.e.f.f.g.g.h.h.i.i.j.j.k.k.l.l.m.m.n.n",
"QtQt.#.#.a.a.b.b.c.c.d.d.e.e.f.f.g.g.h.h.i.i.j.j.k.k.l.l.m.m.n.nQtQt.#.#.a.a.b.b.c.c.d.d.e.e.f.f.g.g.h.h.i.i.j.j.k.k.l.l.m.m.n.n",
".k.k.o.o.p.p.q.q.r.r.p.p.s.s.t.t.o.o.b.b.u.u.v.v.w.w.x.x.y.y.z.z.k.k.o.o.p.p.q.q.r.r.p.p.s.s.t.t.o.o.b.b.u.u.v.v.w.w.x.x.y.y.z.z",
".k.k.o.o.p.p.q.q.r.r.p.p.s.s.t.t.o.o.b.b.u.u.v.v.w.w.x.x.y.y.z.z.k.k.o.o.p.p.q.q.r.r.p.p.s.s.t.t.o.o.b.b.u.u.v.v.w.w.x.x.y.y.z.z",
".p.p.n.n.A.A.B.B.C.C.k.kQtQt.D.D.E.E.F.F.G.G.H.H.I.I.J.J.d.d.K.K.p.p.n.n.A.A.B.B.C.C.k.kQtQt.D.D.E.E.F.F.G.G.H.H.I.I.J.J.d.d.K.K",
".p.p.n.n.A.A.B.B.C.C.k.kQtQt.D.D.E.E.F.F.G.G.H.H.I.I.J.J.d.d.K.K.p.p.n.n.A.A.B.B.C.C.k.kQtQt.D.D.E.E.F.F.G.G.H.H.I.I.J.J.d.d.K.K",
".L.L.M.M.N.N.O.O.P.P.Q.Q.R.R.S.S.T.T.o.o.U.U.V.V.L.L.W.W.X.X.Y.Y.L.L.M.M.N.N.O.O.P.P.Q.Q.R.R.S.S.T.T.o.o.U.U.V.V.L.L.W.W.X.X.Y.Y",
".L.L.M.M.N.N.O.O.P.P.Q.Q.R.R.S.S.T.T.o.o.U.U.V.V.L.L.W.W.X.X.Y.Y.L.L.M.M.N.N.O.O.P.P.Q.Q.R.R.S.S.T.T.o.o.U.U.V.V.L.L.W.W.X.X.Y.Y",
".N.N.O.O.Z.Z.0.0.1.1.Z.Z.E.E.X.X.O.O.e.e.2.2.3.3.4.4.U.U.C.C.5.5.N.N.O.O.Z.Z.0.0.1.1.Z.Z.E.E.X.X.O.O.e.e.2.2.3.3.4.4.U.U.C.C.5.5",
".N.N.O.O.Z.Z.0.0.1.1.Z.Z.E.E.X.X.O.O.e.e.2.2.3.3.4.4.U.U.C.C.5.5.N.N.O.O.Z.Z.0.0.1.1.Z.Z.E.E.X.X.O.O.e.e.2.2.3.3.4.4.U.U.C.C.5.5",
".6.6.v.v.z.z.c.c.7.7.d.d.8.8.G.G.g.g.E.E.9.9#.#.####.S.S.P.P.W.W.6.6.v.v.z.z.c.c.7.7.d.d.8.8.G.G.g.g.E.E.9.9#.#.####.S.S.P.P.W.W",
".6.6.v.v.z.z.c.c.7.7.d.d.8.8.G.G.g.g.E.E.9.9#.#.####.S.S.P.P.W.W.6.6.v.v.z.z.c.c.7.7.d.d.8.8.G.G.g.g.E.E.9.9#.#.####.S.S.P.P.W.W",
".M.M.E.E#a#a#b#b.0.0.4.4#c#c.P.P#d#d.u.u.2.2.9.9.X.X#e#e.e.e.K.K.M.M.E.E#a#a#b#b.0.0.4.4#c#c.P.P#d#d.u.u.2.2.9.9.X.X#e#e.e.e.K.K",
".M.M.E.E#a#a#b#b.0.0.4.4#c#c.P.P#d#d.u.u.2.2.9.9.X.X#e#e.e.e.K.K.M.M.E.E#a#a#b#b.0.0.4.4#c#c.P.P#d#d.u.u.2.2.9.9.X.X#e#e.e.e.K.K",
".h.h.w.w.y.y#f#f.N.N.S.S.j.j#g#g.8.8#h#h.i.i.R.R#i#i#j#j#.#..p.p.h.h.w.w.y.y#f#f.N.N.S.S.j.j#g#g.8.8#h#h.i.i.R.R#i#i#j#j#.#..p.p",
".h.h.w.w.y.y#f#f.N.N.S.S.j.j#g#g.8.8#h#h.i.i.R.R#i#i#j#j#.#..p.p.h.h.w.w.y.y#f#f.N.N.S.S.j.j#g#g.8.8#h#h.i.i.R.R#i#i#j#j#.#..p.p",
"#k#k.J.J.v.v#l#l#m#m#n#n.j.j.9.9#o#o#p#p#####q#q.q.q#r#r.S.S.d.d#k#k.J.J.v.v#l#l#m#m#n#n.j.j.9.9#o#o#p#p#####q#q.q.q#r#r.S.S.d.d",
"#k#k.J.J.v.v#l#l#m#m#n#n.j.j.9.9#o#o#p#p#####q#q.q.q#r#r.S.S.d.d#k#k.J.J.v.v#l#l#m#m#n#n.j.j.9.9#o#o#p#p#####q#q.q.q#r#r.S.S.d.d",
"#s#s.g.g.8.8#t#t#u#u#v#v#w#w#x#x.6.6#y#y#z#z#m#m.9.9.O.O.0.0.m.m#s#s.g.g.8.8#t#t#u#u#v#v#w#w#x#x.6.6#y#y#z#z#m#m.9.9.O.O.0.0.m.m",
"#s#s.g.g.8.8#t#t#u#u#v#v#w#w#x#x.6.6#y#y#z#z#m#m.9.9.O.O.0.0.m.m#s#s.g.g.8.8#t#t#u#u#v#v#w#w#x#x.6.6#y#y#z#z#m#m.9.9.O.O.0.0.m.m",
".4.4.s.s#r#r.4.4.0.0#A#A#b#b#B#B#f#f.O.O.A.A#f#f.v.v#C#C#t#t.g.g.4.4.s.s#r#r.4.4.0.0#A#A#b#b#B#B#f#f.O.O.A.A#f#f.v.v#C#C#t#t.g.g",
".4.4.s.s#r#r.4.4.0.0#A#A#b#b#B#B#f#f.O.O.A.A#f#f.v.v#C#C#t#t.g.g.4.4.s.s#r#r.4.4.0.0#A#A#b#b#B#B#f#f.O.O.A.A#f#f.v.v#C#C#t#t.g.g",
"#D#D#E#E.X.X#F#F.X.X#G#G.M.M#B#B.#.##H#H.a.a.j.j#m#m#a#a#I#I.o.o#D#D#E#E.X.X#F#F.X.X#G#G.M.M#B#B.#.##H#H.a.a.j.j#m#m#a#a#I#I.o.o",
"#D#D#E#E.X.X#F#F.X.X#G#G.M.M#B#B.#.##H#H.a.a.j.j#m#m#a#a#I#I.o.o#D#D#E#E.X.X#F#F.X.X#G#G.M.M#B#B.#.##H#H.a.a.j.j#m#m#a#a#I#I.o.o",
".Z.Z.v.v#G#G#r#r.D.D.9.9#J#J#K#K#L#L#M#M#N#N#O#O#.#.#O#O#P#P#M#M.Z.Z.v.v#G#G#r#r.D.D.9.9#J#J#K#K#L#L#M#M#N#N#O#O#.#.#O#O#P#P#M#M",
".Z.Z.v.v#G#G#r#r.D.D.9.9#J#J#K#K#L#L#M#M#N#N#O#O#.#.#O#O#P#P#M#M.Z.Z.v.v#G#G#r#r.D.D.9.9#J#J#K#K#L#L#M#M#N#N#O#O#.#.#O#O#P#P#M#M",
"#Q#Q.z.z#p#p#k#k#R#R.5.5.n.n#O#O#S#S#T#T.8.8#y#y####.Q.Q#P#P.w.w#Q#Q.z.z#p#p#k#k#R#R.5.5.n.n#O#O#S#S#T#T.8.8#y#y####.Q.Q#P#P.w.w",
"#Q#Q.z.z#p#p#k#k#R#R.5.5.n.n#O#O#S#S#T#T.8.8#y#y####.Q.Q#P#P.w.w#Q#Q.z.z#p#p#k#k#R#R.5.5.n.n#O#O#S#S#T#T.8.8#y#y####.Q.Q#P#P.w.w",
".U.U#H#H#U#U####.R.R#J#J#V#V.Q.Q#V#V#F#F.D.D#U#U#W#W.5.5.N.N.J.J.U.U#H#H#U#U####.R.R#J#J#V#V.Q.Q#V#V#F#F.D.D#U#U#W#W.5.5.N.N.J.J",
".U.U#H#H#U#U####.R.R#J#J#V#V.Q.Q#V#V#F#F.D.D#U#U#W#W.5.5.N.N.J.J.U.U#H#H#U#U####.R.R#J#J#V#V.Q.Q#V#V#F#F.D.D#U#U#W#W.5.5.N.N.J.J",
".Q.Q.4.4.N.N.X.X.B.B.n.n.A.A.a.a.8.8.Q.Q#Q#Q.F.F.4.4#X#X.5.5.h.h.Q.Q.4.4.N.N.X.X.B.B.n.n.A.A.a.a.8.8.Q.Q#Q#Q.F.F.4.4#X#X.5.5.h.h",
".Q.Q.4.4.N.N.X.X.B.B.n.n.A.A.a.a.8.8.Q.Q#Q#Q.F.F.4.4#X#X.5.5.h.h.Q.Q.4.4.N.N.X.X.B.B.n.n.A.A.a.a.8.8.Q.Q#Q#Q.F.F.4.4#X#X.5.5.h.h",
"QtQt.#.#.a.a.b.b.c.c.d.d.e.e.f.f.g.g.h.h.i.i.j.j.k.k.l.l.m.m.n.nQtQt.#.#.a.a.b.b.c.c.d.d.e.e.f.f.g.g.h.h.i.i.j.j.k.k.l.l.m.m.n.n",
"QtQt.#.#.a.a.b.b.c.c.d.d.e.e.f.f.g.g.h.h.i.i.j.j.k.k.l.l.m.m.n.nQtQt.#.#.a.a.b.b.c.c.d.d.e.e.f.f.g.g.h.h.i.i.j.j.k.k.l.l.m.m.n.n",
".k.k.o.o.p.p.q.q.r.r.p.p.s.s.t.t.o.o.b.b.u.u.v.v.w.w.x.x.y.y.z.z.k.k.o.o.p.p.q.q.r.r.p.p.s.s.t.t.o.o.b.b.u.u.v.v.w.w.x.x.y.y.z.z",
".k.k.o.o.p.p.q.q.r.r.p.p.s.s.t.t.o.o.b.b.u.u.v.v.w.w.x.x.y.y.z.z.k.k.o.o.p.p.q.q.r.r.p.p.s.s.t.t.o.o.b.b.u.u.v.v.w.w.x.x.y.y.z.z",
".p.p.n.n.A.A.B.B.C.C.k.kQtQt.D.D.E.E.F.F.G.G.H.H.I.I.J.J.d.d.K.K.p.p.n.n.A.A.B.B.C.C.k.kQtQt.D.D.E.E.F.F.G.G.H.H.I.I.J.J.d.d.K.K",
".p.p.n.n.A.A.B.B.C.C.k.kQtQt.D.D.E.E.F.F.G.G.H.H.I.I.J.J.d.d.K.K.p.p.n.n.A.A.B.B.C.C.k.kQtQt.D.D.E.E.F.F.G.G.H.H.I.I.J.J.d.d.K.K",
".L.L.M.M.N.N.O.O.P.P.Q.Q.R.R.S.S.T.T.o.o.U.U.V.V.L.L.W.W.X.X.Y.Y.L.L.M.M.N.N.O.O.P.P.Q.Q.R.R.S.S.T.T.o.o.U.U.V.V.L.L.W.W.X.X.Y.Y",
".L.L.M.M.N.N.O.O.P.P.Q.Q.R.R.S.S.T.T.o.o.U.U.V.V.L.L.W.W.X.X.Y.Y.L.L.M.M.N.N.O.O.P.P.Q.Q.R.R.S.S.T.T.o.o.U.U.V.V.L.L.W.W.X.X.Y.Y",
".N.N.O.O.Z.Z.0.0.1.1.Z.Z.E.E.X.X.O.O.e.e.2.2.3.3.4.4.U.U.C.C.5.5.N.N.O.O.Z.Z.0.0.1.1.Z.Z.E.E.X.X.O.O.e.e.2.2.3.3.4.4.U.U.C.C.5.5",
".N.N.O.O.Z.Z.0.0.1.1.Z.Z.E.E.X.X.O.O.e.e.2.2.3.3.4.4.U.U.C.C.5.5.N.N.O.O.Z.Z.0.0.1.1.Z.Z.E.E.X.X.O.O.e.e.2.2.3.3.4.4.U.U.C.C.5.5",
".6.6.v.v.z.z.c.c.7.7.d.d.8.8.G.G.g.g.E.E.9.9#.#.####.S.S.P.P.W.W.6.6.v.v.z.z.c.c.7.7.d.d.8.8.G.G.g.g.E.E.9.9#.#.####.S.S.P.P.W.W",
".6.6.v.v.z.z.c.c.7.7.d.d.8.8.G.G.g.g.E.E.9.9#.#.####.S.S.P.P.W.W.6.6.v.v.z.z.c.c.7.7.d.d.8.8.G.G.g.g.E.E.9.9#.#.####.S.S.P.P.W.W",
".M.M.E.E#a#a#b#b.0.0.4.4#c#c.P.P#d#d.u.u.2.2.9.9.X.X#e#e.e.e.K.K.M.M.E.E#a#a#b#b.0.0.4.4#c#c.P.P#d#d.u.u.2.2.9.9.X.X#e#e.e.e.K.K",
".M.M.E.E#a#a#b#b.0.0.4.4#c#c.P.P#d#d.u.u.2.2.9.9.X.X#e#e.e.e.K.K.M.M.E.E#a#a#b#b.0.0.4.4#c#c.P.P#d#d.u.u.2.2.9.9.X.X#e#e.e.e.K.K",
".h.h.w.w.y.y#f#f.N.N.S.S.j.j#g#g.8.8#h#h.i.i.R.R#i#i#j#j#.#..p.p.h.h.w.w.y.y#f#f.N.N.S.S.j.j#g#g.8.8#h#h.i.i.R.R#i#i#j#j#.#..p.p",
".h.h.w.w.y.y#f#f.N.N.S.S.j.j#g#g.8.8#h#h.i.i.R.R#i#i#j#j#.#..p.p.h.h.w.w.y.y#f#f.N.N.S.S.j.j#g#g.8.8#h#h.i.i.R.R#i#i#j#j#.#..p.p",
"#k#k.J.J.v.v#l#l#m#m#n#n.j.j.9.9#o#o#p#p#####q#q.q.q#r#r.S.S.d.d#k#k.J.J.v.v#l#l#m#m#n#n.j.j.9.9#o#o#p#p#####q#q.q.q#r#r.S.S.d.d",
"#k#k.J.J.v.v#l#l#m#m#n#n.j.j.9.9#o#o#p#p#####q#q.q.q#r#r.S.S.d.d#k#k.J.J.v.v#l#l#m#m#n#n.j.j.9.9#o#o#p#p#####q#q.q.q#r#r.S.S.d.d",
"#s#s.g.g.8.8#t#t#u#u#v#v#w#w#x#x.6.6#y#y#z#z#m#m.9.9.O.O.0.0.m.m#s#s.g.g.8.8#t#t#u#u#v#v#w#w#x#x.6.6#y#y#z#z#m#m.9.9.O.O.0.0.m.m",
"#s#s.g.g.8.8#t#t#u#u#v#v#w#w#x#x.6.6#y#y#z#z#m#m.9.9.O.O.0.0.m.m#s#s.g.g.8.8#t#t#u#u#v#v#w#w#x#x.6.6#y#y#z#z#m#m.9.9.O.O.0.0.m.m",
".4.4.s.s#r#r.4.4.0.0#A#A#b#b#B#B#f#f.O.O.A.A#f#f.v.v#C#C#t#t.g.g.4.4.s.s#r#r.4.4.0.0#A#A#b#b#B#B#f#f.O.O.A.A#f#f.v.v#C#C#t#t.g.g",
".4.4.s.s#r#r.4.4.0.0#A#A#b#b#B#B#f#f.O.O.A.A#f#f.v.v#C#C#t#t.g.g.4.4.s.s#r#r.4.4.0.0#A#A#b#b#B#B#f#f.O.O.A.A#f#f.v.v#C#C#t#t.g.g",
"#D#D#E#E.X.X#F#F.X.X#G#G.M.M#B#B.#.##H#H.a.a.j.j#m#m#a#a#I#I.o.o#D#D#E#E.X.X#F#F.X.X#G#G.M.M#B#B.#.##H#H.a.a.j.j#m#m#a#a#I#I.o.o",
"#D#D#E#E.X.X#F#F.X.X#G#G.M.M#B#B.#.##H#H.a.a.j.j#m#m#a#a#I#I.o.o#D#D#E#E.X.X#F#F.X.X#G#G.M.M#B#B.#.##H#H.a.a.j.j#m#m#a#a#I#I.o.o",
".Z.Z.v.v#G#G#r#r.D.D.9.9#J#J#K#K#L#L#M#M#N#N#O#O#.#.#O#O#P#P#M#M.Z.Z.v.v#G#G#r#r.D.D.9.9#J#J#K#K#L#L#M#M#N#N#O#O#.#.#O#O#P#P#M#M",
".Z.Z.v.v#G#G#r#r.D.D.9.9#J#J#K#K#L#L#M#M#N#N#O#O#.#.#O#O#P#P#M#M.Z.Z.v.v#G#G#r#r.D.D.9.9#J#J#K#K#L#L#M#M#N#N#O#O#.#.#O#O#P#P#M#M",
"#Q#Q.z.z#p#p#k#k#R#R.5.5.n.n#O#O#S#S#T#T.8.8#y#y####.Q.Q#P#P.w.w#Q#Q.z.z#p#p#k#k#R#R.5.5.n.n#O#O#S#S#T#T.8.8#y#y####.Q.Q#P#P.w.w",
"#Q#Q.z.z#p#p#k#k#R#R.5.5.n.n#O#O#S#S#T#T.8.8#y#y####.Q.Q#P#P.w.w#Q#Q.z.z#p#p#k#k#R#R.5.5.n.n#O#O#S#S#T#T.8.8#y#y####.Q.Q#P#P.w.w",
".U.U#H#H#U#U####.R.R#J#J#V#V.Q.Q#V#V#F#F.D.D#U#U#W#W.5.5.N.N.J.J.U.U#H#H#U#U####.R.R#J#J#V#V.Q.Q#V#V#F#F.D.D#U#U#W#W.5.5.N.N.J.J",
".U.U#H#H#U#U####.R.R#J#J#V#V.Q.Q#V#V#F#F.D.D#U#U#W#W.5.5.N.N.J.J.U.U#H#H#U#U####.R.R#J#J#V#V.Q.Q#V#V#F#F.D.D#U#U#W#W.5.5.N.N.J.J",
".Q.Q.4.4.N.N.X.X.B.B.n.n.A.A.a.a.8.8.Q.Q#Q#Q.F.F.4.4#X#X.5.5.h.h.Q.Q.4.4.N.N.X.X.B.B.n.n.A.A.a.a.8.8.Q.Q#Q#Q.F.F.4.4#X#X.5.5.h.h",
".Q.Q.4.4.N.N.X.X.B.B.n.n.A.A.a.a.8.8.Q.Q#Q#Q.F.F.4.4#X#X.5.5.h.h.Q.Q.4.4.N.N.X.X.B.B.n.n.A.A.a.a.8.8.Q.Q#Q#Q.F.F.4.4#X#X.5.5.h.h"};
