/* XPM */
static char *dummy[]={
"64 64 116 2",
"#v c #cececf",
".z c #d8d8d9",
"#K c #d8d9d9",
"#h c #d9d9d8",
".w c #dadada",
".7 c #dadadb",
".O c #dadbda",
".v c #dadbdb",
".R c #dbdada",
"#G c #dbdadb",
".E c #dbdbda",
".H c #dbdbdb",
"#l c #dcdcdc",
".0 c #dcdcdd",
"#B c #dcdddd",
".8 c #dddcdc",
"Qt c #dddcdd",
".9 c #dddddc",
".k c #dddddd",
"#T c #dededf",
"#W c #dedfde",
"#w c #dedfdf",
"#p c #dfdfde",
".P c #dfdfdf",
".t c #e0e0e0",
".n c #e0e0e1",
".y c #e0e1e0",
".e c #e0e1e1",
".4 c #e1e0e0",
".F c #e1e0e1",
"#x c #e1e1e0",
".u c #e1e1e1",
".h c #e2e2e2",
".3 c #e2e3e2",
"#. c #e2e3e3",
"#M c #e3e2e3",
".A c #e3e3e2",
"#u c #e3e3e3",
"#i c #e4e5e5",
".U c #e5e4e4",
"#J c #e5e4e5",
".K c #e5e5e4",
"#L c #e5e5e5",
"#D c #e6e7e7",
"#U c #e7e6e7",
"## c #e7e7e6",
"#A c #e7e7e7",
"#r c #e8e8e8",
"#s c #e8e8e9",
".1 c #e8e9e8",
"#n c #e8e9e9",
".D c #e9e8e8",
".p c #e9e8e9",
".x c #e9e9e8",
".6 c #eaeaeb",
"#S c #eaebea",
".f c #ebebeb",
".o c #ececec",
"#k c #ececed",
".Y c #ecedec",
".S c #eceded",
"#j c #edecec",
"#N c #edeced",
"#c c #ededec",
"#R c #eeeeee",
"#d c #eeeeef",
".N c #eeefef",
".G c #efeeee",
".# c #efeeef",
"#P c #efefee",
".c c #efefef",
".W c #f0f0f1",
"#f c #f0f1f1",
".B c #f1f0f0",
".s c #f1f0f1",
".J c #f1f1f0",
".r c #f1f1f1",
"#V c #f2f2f2",
"#O c #f2f2f3",
".C c #f2f3f2",
".i c #f2f3f3",
"#e c #f3f2f2",
".q c #f3f2f3",
"#z c #f3f3f3",
".l c #f4f4f4",
"#H c #f4f4f5",
".I c #f4f5f4",
"#t c #f5f4f4",
".b c #f5f5f4",
".Z c #f5f5f5",
"#X c #f6f6f6",
"#o c #f6f7f7",
"#Q c #f7f6f7",
".5 c #f7f7f6",
"#q c #f7f7f7",
".T c #f8f8f8",
"#F c #f8f8f9",
"#g c #f8f9f8",
".m c #f8f9f9",
"#E c #f9f8f8",
"#m c #f9f8f9",
".V c #f9f9f9",
"#C c #fafafa",
"#b c #fafafb",
".Q c #fafbfa",
".g c #fafbfb",
"#y c #fbfbfa",
"#I c #fbfbfb",
".d c #fcfcfc",
".M c #fcfcfd",
".X c #fcfdfc",
"#a c #fdfdfc",
".2 c #fdfdfd",
".L c #fefefe",
".j c #fefffe",
".a c #fffeff",
"Qt.#.a.b.c.d.e.f.g.h.i.j.k.l.m.nQt.#.a.b.c.d.e.f.g.h.i.j.k.l.m.nQt.#.a.b.c.d.e.f.g.h.i.j.k.l.m.nQt.#.a.b.c.d.e.f.g.h.i.j.k.l.m.n",
".k.o.p.q.r.p.s.t.o.b.u.v.w.x.y.z.k.o.p.q.r.p.s.t.o.b.u.v.w.x.y.z.k.o.p.q.r.p.s.t.o.b.u.v.w.x.y.z.k.o.p.q.r.p.s.t.o.b.u.v.w.x.y.z",
".p.n.A.B.C.kQt.D.E.F.G.H.I.J.d.K.p.n.A.B.C.kQt.D.E.F.G.H.I.J.d.K.p.n.A.B.C.kQt.D.E.F.G.H.I.J.d.K.p.n.A.B.C.kQt.D.E.F.G.H.I.J.d.K",
".L.M.N.O.P.Q.R.S.T.o.U.V.L.W.X.Y.L.M.N.O.P.Q.R.S.T.o.U.V.L.W.X.Y.L.M.N.O.P.Q.R.S.T.o.U.V.L.W.X.Y.L.M.N.O.P.Q.R.S.T.o.U.V.L.W.X.Y",
".N.O.Z.0.1.Z.E.X.O.e.2.3.4.U.C.5.N.O.Z.0.1.Z.E.X.O.e.2.3.4.U.C.5.N.O.Z.0.1.Z.E.X.O.e.2.3.4.U.C.5.N.O.Z.0.1.Z.E.X.O.e.2.3.4.U.C.5",
".6.v.z.c.7.d.8.G.g.E.9#.##.S.P.W.6.v.z.c.7.d.8.G.g.E.9#.##.S.P.W.6.v.z.c.7.d.8.G.g.E.9#.##.S.P.W.6.v.z.c.7.d.8.G.g.E.9#.##.S.P.W",
".M.E#a#b.0.4#c.P#d.u.2.9.X#e.e.K.M.E#a#b.0.4#c.P#d.u.2.9.X#e.e.K.M.E#a#b.0.4#c.P#d.u.2.9.X#e.e.K.M.E#a#b.0.4#c.P#d.u.2.9.X#e.e.K",
".h.w.y#f.N.S.j#g.8#h.i.R#i#j#..p.h.w.y#f.N.S.j#g.8#h.i.R#i#j#..p.h.w.y#f.N.S.j#g.8#h.i.R#i#j#..p.h.w.y#f.N.S.j#g.8#h.i.R#i#j#..p",
"#k.J.v#l#m#n.j.9#o#p###q.q#r.S.d#k.J.v#l#m#n.j.9#o#p###q.q#r.S.d#k.J.v#l#m#n.j.9#o#p###q.q#r.S.d#k.J.v#l#m#n.j.9#o#p###q.q#r.S.d",
"#s.g.8#t#u#v#w#x.6#y#z#m.9.O.0.m#s.g.8#t#u#v#w#x.6#y#z#m.9.O.0.m#s.g.8#t#u#v#w#x.6#y#z#m.9.O.0.m#s.g.8#t#u#v#w#x.6#y#z#m.9.O.0.m",
".4.s#r.4.0#A#b#B#f.O.A#f.v#C#t.g.4.s#r.4.0#A#b#B#f.O.A#f.v#C#t.g.4.s#r.4.0#A#b#B#f.O.A#f.v#C#t.g.4.s#r.4.0#A#b#B#f.O.A#f.v#C#t.g",
"#D#E.X#F.X#G.M#B.##H.a.j#m#a#I.o#D#E.X#F.X#G.M#B.##H.a.j#m#a#I.o#D#E.X#F.X#G.M#B.##H.a.j#m#a#I.o#D#E.X#F.X#G.M#B.##H.a.j#m#a#I.o",
".Z.v#G#r.D.9#J#K#L#M#N#O#.#O#P#M.Z.v#G#r.D.9#J#K#L#M#N#O#.#O#P#M.Z.v#G#r.D.9#J#K#L#M#N#O#.#O#P#M.Z.v#G#r.D.9#J#K#L#M#N#O#.#O#P#M",
"#Q.z#p#k#R.5.n#O#S#T.8#y##.Q#P.w#Q.z#p#k#R.5.n#O#S#T.8#y##.Q#P.w#Q.z#p#k#R.5.n#O#S#T.8#y##.Q#P.w#Q.z#p#k#R.5.n#O#S#T.8#y##.Q#P.w",
".U#H#U##.R#J#V.Q#V#F.D#U#W.5.N.J.U#H#U##.R#J#V.Q#V#F.D#U#W.5.N.J.U#H#U##.R#J#V.Q#V#F.D#U#W.5.N.J.U#H#U##.R#J#V.Q#V#F.D#U#W.5.N.J",
".Q.4.N.X.B.n.A.a.8.Q#Q.F.4#X.5.h.Q.4.N.X.B.n.A.a.8.Q#Q.F.4#X.5.h.Q.4.N.X.B.n.A.a.8.Q#Q.F.4#X.5.h.Q.4.N.X.B.n.A.a.8.Q#Q.F.4#X.5.h",
"Qt.#.a.b.c.d.e.f.g.h.i.j.k.l.m.nQt.#.a.b.c.d.e.f.g.h.i.j.k.l.m.nQt.#.a.b.c.d.e.f.g.h.i.j.k.l.m.nQt.#.a.b.c.d.e.f.g.h.i.j.k.l.m.n",
".k.o.p.q.r.p.s.t.o.b.u.v.w.x.y.z.k.o.p.q.r.p.s.t.o.b.u.v.w.x.y.z.k.o.p.q.r.p.s.t.o.b.u.v.w.x.y.z.k.o.p.q.r.p.s.t.o.b.u.v.w.x.y.z",
".p.n.A.B.C.kQt.D.E.F.G.H.I.J.d.K.p.n.A.B.C.kQt.D.E.F.G.H.I.J.d.K.p.n.A.B.C.kQt.D.E.F.G.H.I.J.d.K.p.n.A.B.C.kQt.D.E.F.G.H.I.J.d.K",
".L.M.N.O.P.Q.R.S.T.o.U.V.L.W.X.Y.L.M.N.O.P.Q.R.S.T.o.U.V.L.W.X.Y.L.M.N.O.P.Q.R.S.T.o.U.V.L.W.X.Y.L.M.N.O.P.Q.R.S.T.o.U.V.L.W.X.Y",
".N.O.Z.0.1.Z.E.X.O.e.2.3.4.U.C.5.N.O.Z.0.1.Z.E.X.O.e.2.3.4.U.C.5.N.O.Z.0.1.Z.E.X.O.e.2.3.4.U.C.5.N.O.Z.0.1.Z.E.X.O.e.2.3.4.U.C.5",
".6.v.z.c.7.d.8.G.g.E.9#.##.S.P.W.6.v.z.c.7.d.8.G.g.E.9#.##.S.P.W.6.v.z.c.7.d.8.G.g.E.9#.##.S.P.W.6.v.z.c.7.d.8.G.g.E.9#.##.S.P.W",
".M.E#a#b.0.4#c.P#d.u.2.9.X#e.e.K.M.E#a#b.0.4#c.P#d.u.2.9.X#e.e.K.M.E#a#b.0.4#c.P#d.u.2.9.X#e.e.K.M.E#a#b.0.4#c.P#d.u.2.9.X#e.e.K",
".h.w.y#f.N.S.j#g.8#h.i.R#i#j#..p.h.w.y#f.N.S.j#g.8#h.i.R#i#j#..p.h.w.y#f.N.S.j#g.8#h.i.R#i#j#..p.h.w.y#f.N.S.j#g.8#h.i.R#i#j#..p",
"#k.J.v#l#m#n.j.9#o#p###q.q#r.S.d#k.J.v#l#m#n.j.9#o#p###q.q#r.S.d#k.J.v#l#m#n.j.9#o#p###q.q#r.S.d#k.J.v#l#m#n.j.9#o#p###q.q#r.S.d",
"#s.g.8#t#u#v#w#x.6#y#z#m.9.O.0.m#s.g.8#t#u#v#w#x.6#y#z#m.9.O.0.m#s.g.8#t#u#v#w#x.6#y#z#m.9.O.0.m#s.g.8#t#u#v#w#x.6#y#z#m.9.O.0.m",
".4.s#r.4.0#A#b#B#f.O.A#f.v#C#t.g.4.s#r.4.0#A#b#B#f.O.A#f.v#C#t.g.4.s#r.4.0#A#b#B#f.O.A#f.v#C#t.g.4.s#r.4.0#A#b#B#f.O.A#f.v#C#t.g",
"#D#E.X#F.X#G.M#B.##H.a.j#m#a#I.o#D#E.X#F.X#G.M#B.##H.a.j#m#a#I.o#D#E.X#F.X#G.M#B.##H.a.j#m#a#I.o#D#E.X#F.X#G.M#B.##H.a.j#m#a#I.o",
".Z.v#G#r.D.9#J#K#L#M#N#O#.#O#P#M.Z.v#G#r.D.9#J#K#L#M#N#O#.#O#P#M.Z.v#G#r.D.9#J#K#L#M#N#O#.#O#P#M.Z.v#G#r.D.9#J#K#L#M#N#O#.#O#P#M",
"#Q.z#p#k#R.5.n#O#S#T.8#y##.Q#P.w#Q.z#p#k#R.5.n#O#S#T.8#y##.Q#P.w#Q.z#p#k#R.5.n#O#S#T.8#y##.Q#P.w#Q.z#p#k#R.5.n#O#S#T.8#y##.Q#P.w",
".U#H#U##.R#J#V.Q#V#F.D#U#W.5.N.J.U#H#U##.R#J#V.Q#V#F.D#U#W.5.N.J.U#H#U##.R#J#V.Q#V#F.D#U#W.5.N.J.U#H#U##.R#J#V.Q#V#F.D#U#W.5.N.J",
".Q.4.N.X.B.n.A.a.8.Q#Q.F.4#X.5.h.Q.4.N.X.B.n.A.a.8.Q#Q.F.4#X.5.h.Q.4.N.X.B.n.A.a.8.Q#Q.F.4#X.5.h.Q.4.N.X.B.n.A.a.8.Q#Q.F.4#X.5.h",
"Qt.#.a.b.c.d.e.f.g.h.i.j.k.l.m.nQt.#.a.b.c.d.e.f.g.h.i.j.k.l.m.nQt.#.a.b.c.d.e.f.g.h.i.j.k.l.m.nQt.#.a.b.c.d.e.f.g.h.i.j.k.l.m.n",
".k.o.p.q.r.p.s.t.o.b.u.v.w.x.y.z.k.o.p.q.r.p.s.t.o.b.u.v.w.x.y.z.k.o.p.q.r.p.s.t.o.b.u.v.w.x.y.z.k.o.p.q.r.p.s.t.o.b.u.v.w.x.y.z",
".p.n.A.B.C.kQt.D.E.F.G.H.I.J.d.K.p.n.A.B.C.kQt.D.E.F.G.H.I.J.d.K.p.n.A.B.C.kQt.D.E.F.G.H.I.J.d.K.p.n.A.B.C.kQt.D.E.F.G.H.I.J.d.K",
".L.M.N.O.P.Q.R.S.T.o.U.V.L.W.X.Y.L.M.N.O.P.Q.R.S.T.o.U.V.L.W.X.Y.L.M.N.O.P.Q.R.S.T.o.U.V.L.W.X.Y.L.M.N.O.P.Q.R.S.T.o.U.V.L.W.X.Y",
".N.O.Z.0.1.Z.E.X.O.e.2.3.4.U.C.5.N.O.Z.0.1.Z.E.X.O.e.2.3.4.U.C.5.N.O.Z.0.1.Z.E.X.O.e.2.3.4.U.C.5.N.O.Z.0.1.Z.E.X.O.e.2.3.4.U.C.5",
".6.v.z.c.7.d.8.G.g.E.9#.##.S.P.W.6.v.z.c.7.d.8.G.g.E.9#.##.S.P.W.6.v.z.c.7.d.8.G.g.E.9#.##.S.P.W.6.v.z.c.7.d.8.G.g.E.9#.##.S.P.W",
".M.E#a#b.0.4#c.P#d.u.2.9.X#e.e.K.M.E#a#b.0.4#c.P#d.u.2.9.X#e.e.K.M.E#a#b.0.4#c.P#d.u.2.9.X#e.e.K.M.E#a#b.0.4#c.P#d.u.2.9.X#e.e.K",
".h.w.y#f.N.S.j#g.8#h.i.R#i#j#..p.h.w.y#f.N.S.j#g.8#h.i.R#i#j#..p.h.w.y#f.N.S.j#g.8#h.i.R#i#j#..p.h.w.y#f.N.S.j#g.8#h.i.R#i#j#..p",
"#k.J.v#l#m#n.j.9#o#p###q.q#r.S.d#k.J.v#l#m#n.j.9#o#p###q.q#r.S.d#k.J.v#l#m#n.j.9#o#p###q.q#r.S.d#k.J.v#l#m#n.j.9#o#p###q.q#r.S.d",
"#s.g.8#t#u#v#w#x.6#y#z#m.9.O.0.m#s.g.8#t#u#v#w#x.6#y#z#m.9.O.0.m#s.g.8#t#u#v#w#x.6#y#z#m.9.O.0.m#s.g.8#t#u#v#w#x.6#y#z#m.9.O.0.m",
".4.s#r.4.0#A#b#B#f.O.A#f.v#C#t.g.4.s#r.4.0#A#b#B#f.O.A#f.v#C#t.g.4.s#r.4.0#A#b#B#f.O.A#f.v#C#t.g.4.s#r.4.0#A#b#B#f.O.A#f.v#C#t.g",
"#D#E.X#F.X#G.M#B.##H.a.j#m#a#I.o#D#E.X#F.X#G.M#B.##H.a.j#m#a#I.o#D#E.X#F.X#G.M#B.##H.a.j#m#a#I.o#D#E.X#F.X#G.M#B.##H.a.j#m#a#I.o",
".Z.v#G#r.D.9#J#K#L#M#N#O#.#O#P#M.Z.v#G#r.D.9#J#K#L#M#N#O#.#O#P#M.Z.v#G#r.D.9#J#K#L#M#N#O#.#O#P#M.Z.v#G#r.D.9#J#K#L#M#N#O#.#O#P#M",
"#Q.z#p#k#R.5.n#O#S#T.8#y##.Q#P.w#Q.z#p#k#R.5.n#O#S#T.8#y##.Q#P.w#Q.z#p#k#R.5.n#O#S#T.8#y##.Q#P.w#Q.z#p#k#R.5.n#O#S#T.8#y##.Q#P.w",
".U#H#U##.R#J#V.Q#V#F.D#U#W.5.N.J.U#H#U##.R#J#V.Q#V#F.D#U#W.5.N.J.U#H#U##.R#J#V.Q#V#F.D#U#W.5.N.J.U#H#U##.R#J#V.Q#V#F.D#U#W.5.N.J",
".Q.4.N.X.B.n.A.a.8.Q#Q.F.4#X.5.h.Q.4.N.X.B.n.A.a.8.Q#Q.F.4#X.5.h.Q.4.N.X.B.n.A.a.8.Q#Q.F.4#X.5.h.Q.4.N.X.B.n.A.a.8.Q#Q.F.4#X.5.h",
"Qt.#.a.b.c.d.e.f.g.h.i.j.k.l.m.nQt.#.a.b.c.d.e.f.g.h.i.j.k.l.m.nQt.#.a.b.c.d.e.f.g.h.i.j.k.l.m.nQt.#.a.b.c.d.e.f.g.h.i.j.k.l.m.n",
".k.o.p.q.r.p.s.t.o.b.u.v.w.x.y.z.k.o.p.q.r.p.s.t.o.b.u.v.w.x.y.z.k.o.p.q.r.p.s.t.o.b.u.v.w.x.y.z.k.o.p.q.r.p.s.t.o.b.u.v.w.x.y.z",
".p.n.A.B.C.kQt.D.E.F.G.H.I.J.d.K.p.n.A.B.C.kQt.D.E.F.G.H.I.J.d.K.p.n.A.B.C.kQt.D.E.F.G.H.I.J.d.K.p.n.A.B.C.kQt.D.E.F.G.H.I.J.d.K",
".L.M.N.O.P.Q.R.S.T.o.U.V.L.W.X.Y.L.M.N.O.P.Q.R.S.T.o.U.V.L.W.X.Y.L.M.N.O.P.Q.R.S.T.o.U.V.L.W.X.Y.L.M.N.O.P.Q.R.S.T.o.U.V.L.W.X.Y",
".N.O.Z.0.1.Z.E.X.O.e.2.3.4.U.C.5.N.O.Z.0.1.Z.E.X.O.e.2.3.4.U.C.5.N.O.Z.0.1.Z.E.X.O.e.2.3.4.U.C.5.N.O.Z.0.1.Z.E.X.O.e.2.3.4.U.C.5",
".6.v.z.c.7.d.8.G.g.E.9#.##.S.P.W.6.v.z.c.7.d.8.G.g.E.9#.##.S.P.W.6.v.z.c.7.d.8.G.g.E.9#.##.S.P.W.6.v.z.c.7.d.8.G.g.E.9#.##.S.P.W",
".M.E#a#b.0.4#c.P#d.u.2.9.X#e.e.K.M.E#a#b.0.4#c.P#d.u.2.9.X#e.e.K.M.E#a#b.0.4#c.P#d.u.2.9.X#e.e.K.M.E#a#b.0.4#c.P#d.u.2.9.X#e.e.K",
".h.w.y#f.N.S.j#g.8#h.i.R#i#j#..p.h.w.y#f.N.S.j#g.8#h.i.R#i#j#..p.h.w.y#f.N.S.j#g.8#h.i.R#i#j#..p.h.w.y#f.N.S.j#g.8#h.i.R#i#j#..p",
"#k.J.v#l#m#n.j.9#o#p###q.q#r.S.d#k.J.v#l#m#n.j.9#o#p###q.q#r.S.d#k.J.v#l#m#n.j.9#o#p###q.q#r.S.d#k.J.v#l#m#n.j.9#o#p###q.q#r.S.d",
"#s.g.8#t#u#v#w#x.6#y#z#m.9.O.0.m#s.g.8#t#u#v#w#x.6#y#z#m.9.O.0.m#s.g.8#t#u#v#w#x.6#y#z#m.9.O.0.m#s.g.8#t#u#v#w#x.6#y#z#m.9.O.0.m",
".4.s#r.4.0#A#b#B#f.O.A#f.v#C#t.g.4.s#r.4.0#A#b#B#f.O.A#f.v#C#t.g.4.s#r.4.0#A#b#B#f.O.A#f.v#C#t.g.4.s#r.4.0#A#b#B#f.O.A#f.v#C#t.g",
"#D#E.X#F.X#G.M#B.##H.a.j#m#a#I.o#D#E.X#F.X#G.M#B.##H.a.j#m#a#I.o#D#E.X#F.X#G.M#B.##H.a.j#m#a#I.o#D#E.X#F.X#G.M#B.##H.a.j#m#a#I.o",
".Z.v#G#r.D.9#J#K#L#M#N#O#.#O#P#M.Z.v#G#r.D.9#J#K#L#M#N#O#.#O#P#M.Z.v#G#r.D.9#J#K#L#M#N#O#.#O#P#M.Z.v#G#r.D.9#J#K#L#M#N#O#.#O#P#M",
"#Q.z#p#k#R.5.n#O#S#T.8#y##.Q#P.w#Q.z#p#k#R.5.n#O#S#T.8#y##.Q#P.w#Q.z#p#k#R.5.n#O#S#T.8#y##.Q#P.w#Q.z#p#k#R.5.n#O#S#T.8#y##.Q#P.w",
".U#H#U##.R#J#V.Q#V#F.D#U#W.5.N.J.U#H#U##.R#J#V.Q#V#F.D#U#W.5.N.J.U#H#U##.R#J#V.Q#V#F.D#U#W.5.N.J.U#H#U##.R#J#V.Q#V#F.D#U#W.5.N.J",
".Q.4.N.X.B.n.A.a.8.Q#Q.F.4#X.5.h.Q.4.N.X.B.n.A.a.8.Q#Q.F.4#X.5.h.Q.4.N.X.B.n.A.a.8.Q#Q.F.4#X.5.h.Q.4.N.X.B.n.A.a.8.Q#Q.F.4#X.5.h"};
