/* XPM */
static char *dummy[]={
"32 32 31 1",
". c None",
"e c None",
"d c #204020",
"g c #33331a",
"y c #181800",
"h c #2f2f18",
"v c #112206",
"x c #000000",
"s c #112109",
"m c #12220a",
"l c #374a2c",
"f c #000000",
"C c #010101",
"p c #030502",
"z c #060b03",
"o c #060b04",
"q c #091005",
"A c #101f09",
"a c #102008",
"w c #112109",
"B c #182810",
"u c #1b2b13",
"k c #1e2e16",
"n c #25351d",
"r c #26361e",
"t c #27371f",
"# c #283820",
"j c #334a24",
"i c #374e27",
"b c #385028",
"c c #506840",
"................................",
"................................",
"................................",
"................................",
"................................",
"................................",
"................................",
"................................",
"................................",
"................................",
"................................",
"................................",
"................................",
"................................",
"................................",
"................................",
".................#a.............",
".................ba.............",
".............a..aca.............",
".............a..d#ca.a..ee......",
".........a...af.g#c#..a.ee......",
"..........a..affhbc#..aaee......",
"..........#a..af#bb#..aae.......",
"..........b...afibc#a.fae.......",
"..........c#..aajbca..a#e.......",
"..........bc#.aklc#a.a##e.......",
"..........#c#amanb#a.ab#e.......",
"..........ab#aoaa#a.a#bae.......",
"...........#bapaqrs.aab#e.......",
".............atpuav.a##ae.......",
"..............awaaxaba..........",
"..............yzABC#a..........."};
