/* XPM */
static char *dummy[]={
"64 64 6 1",
". c None",
"d c #000800",
"a c #103818",
"# c #405830",
"b c #588048",
"c c #80a868",
"................................................................",
"................................................................",
"................................................................",
"................................................................",
"................................................................",
"................................................................",
"................................................................",
"................................................................",
"................................................................",
"................................................................",
"................................................................",
"................................................................",
"................................................................",
"................................................................",
"................................................................",
"................................................................",
"................................................................",
"................................................................",
"................................................................",
"................................................................",
"................................................................",
"................................................................",
"................................................................",
"................................................................",
"................................................................",
"................................................................",
"................................................................",
"................................................................",
"................................................................",
"................................................................",
"................................................................",
"................................................................",
"..................................##aa..........................",
"..................................##aa..........................",
"..................................bbaa..........................",
"..................................bbaa..........................",
"..........................aa....aaccaa..........................",
"..........................aa....aaccaa..........................",
"..........................aa....##ccaa....aa....................",
"..........................aa....##ccaa....aa....................",
"..................aa......aadd..##cc##....aa....................",
"..................aa......aadd..##cc##....aa....................",
"..................aa......aaddddbbcc##....aaaa..................",
"..................aa......aaddddbbcc##....aaaa..................",
"..................##aa....aadd##bbbb##....aaaa..................",
"..................##aa....aadd##bbbb##....aaaa..................",
"..................bb......aaddbbcc##aa....ddaa..................",
"..................bb......aaddbbcc##aa....ddaa..................",
"..................cc##....aaaabbccaa......aa##..................",
"..................cc##....aaaabbccaa......aa##..................",
"..................bbcc##..aa##cc##aa....aa####..................",
"..................bbcc##..aa##cc##aa....aa####..................",
"..................##cc##aaaa##bb##aa....aabb##..................",
"..................##cc##aaaa##bb##aa....aabb##..................",
"..................aabb##aaddaa##aa....aa##bbaa..................",
"..................aabb##aaddaa##aa....aa##bbaa..................",
"....................##bbaadddd##aa..aaaabb##....................",
"....................##bbaadddd##aa..aaaabb##....................",
"......................aa##aadd##aa..aa####aa....................",
"......................aa##aadd##aa..aa####aa....................",
"........................aa##aaaaddaabbaa........................",
"........................aa##aaaaddaabbaa........................",
"..........................aadd##dd##aa..........................",
"..........................aadd##dd##aa.........................."};
