/* XPM */
static char *dummy[]={
"32 32 28 1",
". c None",
"d c None",
"m c #000000",
"s c #000000",
"v c #181800",
"f c #2f2f18",
"g c #2c3c20",
"k c #12220a",
"e c #000000",
"z c #010101",
"q c #030502",
"u c #040602",
"w c #060b03",
"n c #080f04",
"x c #101f09",
"a c #102008",
"t c #112109",
"y c #182810",
"r c #1b2b13",
"j c #23331b",
"l c #25351d",
"o c #26361e",
"p c #27371f",
"# c #283820",
"i c #334a24",
"h c #374e27",
"b c #385028",
"c c #506840",
"................................",
"................................",
"................................",
"................................",
"................................",
"................................",
"................................",
"................................",
"................................",
"................................",
"................................",
"................................",
"................................",
"................................",
"................................",
"................................",
".................#a.............",
"..................ba............",
"..............a..aca............",
"..............a..#ca..a..d......",
"..........a...ae.#c#..a..d......",
"..........a...aeefbc#.aa.d......",
"..........#a..ae#gbb#.aa........",
"..........b...aehbc#a..ea.......",
"...........c#.aaibca...a#.......",
"...........bc#.ajc#a..a##.......",
"...........#c#aklb#a..ab#.......",
"...........ab#aaa#am.a#ba.......",
"............#banoaa.aab#........",
".............apqraasa##a........",
"..............ataauaba..........",
"..............vwxyz#a..........."};
