/* XPM */
static char *dummy[]={
"32 32 25 1",
". c None",
"d c None",
"j c #000000",
"p c #000000",
"s c #181800",
"g c #12220a",
"e c #000000",
"w c #010101",
"n c #030502",
"r c #040602",
"t c #060b03",
"k c #080f04",
"i c #0f1e08",
"u c #101f09",
"a c #102008",
"q c #112109",
"v c #182810",
"o c #1b2b13",
"f c #23331b",
"h c #25351d",
"l c #26361e",
"m c #27371f",
"# c #283820",
"b c #385028",
"c c #506840",
"................................",
"................................",
"................................",
"................................",
"................................",
"................................",
"................................",
"................................",
"................................",
"................................",
"................................",
"................................",
"................................",
"................................",
"................................",
"................................",
"..................#a............",
"..................ba............",
"..............a..aca............",
"...............a..#ca..a.d......",
"...........a...ae.#c#..a.d......",
"...........a...aeebc#..aad......",
"...........#a..ae#bb#..aa.......",
"...........b...aebc#a..ea.......",
"...........c#..aabca...a#.......",
"...........bc#.afc#a..a##.......",
"...........#c#aghb#a..ab#.......",
"...........ab#ai#aaj.a#ba.......",
"............#baklaa.aab#........",
".............amnoaapa##a........",
"..............aqaaraba..........",
"..............stuvw#a..........."};
