/* XPM */
static char *dummy[]={
"32 32 22 1",
". c None",
"# c None",
"q c #112009",
"r c #050504",
"n c #112109",
"h c #12220a",
"g c #374b2c",
"e c #000000",
"k c #030502",
"s c #060b03",
"j c #060b04",
"l c #091005",
"o c #0d1907",
"t c #101f08",
"b c #102008",
"p c #1b2b13",
"f c #1e2e16",
"i c #25351d",
"m c #26361e",
"a c #283820",
"c c #385028",
"d c #506840",
"................................",
"................................",
"................................",
"................................",
"................................",
"................................",
"................................",
"................................",
"................................",
"................................",
"................................",
"................................",
"................................",
"................................",
"................................",
"................................",
"............####..ab............",
"............####.cb#............",
"............#.b.bdb#............",
"............#.b.adb#..b.##......",
"..........b.#.beada#.b.###......",
".........b..##becda#.bb###......",
".........ab.#beacca#.bb##.......",
".........c..#becdab#.eb##.......",
".........da.#bbcdb##.ba##.......",
".........cda#bfgdab#baa##.......",
".........adabhbicab#bca##.......",
".........bcabjbbab#bacb##.......",
"..........acbkblmnbbca.##.......",
"...........babokpqbaab.##.......",
"............babbbbcb............",
"............#brstib#............"};
