/* XPM */
static char *dummy[]={
"32 32 20 1",
". c None",
"d c None",
"j c #000000",
"o c #000000",
"g c #12220a",
"e c #000000",
"m c #030502",
"q c #060b03",
"k c #080f04",
"p c #0f1d07",
"i c #0f1e08",
"r c #101f08",
"a c #102008",
"n c #1b2b13",
"f c #23331b",
"h c #25351d",
"l c #26361e",
"# c #283820",
"b c #385028",
"c c #506840",
"................................",
"................................",
"................................",
"................................",
"................................",
"................................",
"................................",
"................................",
"................................",
"................................",
"................................",
"................................",
"................................",
"................................",
"................................",
"................................",
"...................#a...........",
"...................ba...........",
"...............a..aca...........",
"...............a..#ca..a.d......",
"...........a...ae.#c#..a.d......",
"...........a...aeebc#..aad......",
"...........#a..ae#bb#..aa.......",
"..........b....abc#a..ea........",
"..........c#...abca...a#........",
"..........bc#.afc#a..a##........",
"..........#c#aghb#a..ab#........",
"..........ab#ai#aaj.a#ba........",
"...........#baklaa.aab#.........",
"............a#amnaoa##a.........",
".............a#aapaba...........",
"..............aqrha............."};
