/* XPM */
static char *dummy[]={
"32 32 20 1",
". c None",
"d c None",
"i c #000000",
"e c #000000",
"m c #030502",
"r c #040602",
"p c #050a02",
"k c #080f04",
"o c #0f1d07",
"j c #0f1e08",
"a c #102008",
"q c #13230b",
"n c #1b2b13",
"f c #1d2d15",
"h c #25351d",
"l c #26361e",
"# c #283820",
"g c #293921",
"b c #385028",
"c c #506840",
"................................",
"................................",
"................................",
"................................",
"................................",
"................................",
"................................",
"................................",
"................................",
"................................",
"................................",
"................................",
"................................",
"................................",
"................................",
"................................",
"..................#a............",
"...................ba...........",
"...............a..aca...........",
"...............a..#ca..a.d......",
"...........a...ae.#c#..a.d......",
"...........a...aeebc#..aad......",
"...........#a..ae#bb#..aa.......",
"...........b...aebc#a..ea.......",
"...........c#..aabca...a#.......",
"...........bc#.fcga...a##.......",
"...........#c#ahb#ai..ab#.......",
"...........ab#aj#aai.a#ba.......",
"............#baklaaaab#.........",
"............a#amnaaa##a.........",
".............a#aaoaba...........",
"..............apqr#a............"};
