/* XPM */
static char *dummy[]={
"32 32 24 1",
". c None",
"d c None",
"r c #112009",
"s c #040403",
"j c #12220a",
"i c #374b2c",
"e c #000000",
"v c #030501",
"m c #030502",
"t c #060b03",
"l c #060b04",
"n c #091005",
"p c #0d1907",
"a c #102008",
"u c #12220a",
"q c #1b2b13",
"h c #1e2e16",
"k c #25351d",
"o c #26361e",
"# c #283820",
"g c #334a24",
"f c #374e27",
"b c #385028",
"c c #506840",
"................................",
"................................",
"................................",
"................................",
"................................",
"................................",
"................................",
"................................",
"................................",
"................................",
"................................",
"................................",
"................................",
"................................",
"................................",
"................................",
".................#a.............",
".................ba.............",
".............a..aca.............",
".............a..#ca..a..dd......",
".........a...ae.#c#..a.ddd......",
".........a...aeebc#..aaddd......",
".........#a..ae#bb#..aadd.......",
".........b...aefbc#a.eadd.......",
".........c#..aagbca..a#dd.......",
".........bc#.ahic#a.a##dd.......",
".........#c#ajakb#a.ab#dd.......",
".........ab#alaaa#aa#badd.......",
"..........#bamaanoaab#.dd.......",
"...........a#apmqra##a.dd.......",
"............a#aaaaba............",
".............astuv#a............"};
