/* XPM */
static char *dummy[]={
"32 32 26 1",
". c None",
"d c None",
"t c #000000",
"f c #2f2f18",
"g c #2c3c20",
"l c #293820",
"m c #25361e",
"k c #465e37",
"r c #112109",
"e c #000000",
"o c #030502",
"x c #040602",
"v c #050a02",
"n c #060b04",
"p c #091005",
"u c #0f1d07",
"a c #102008",
"w c #13230b",
"s c #1b2b13",
"j c #1e2e16",
"q c #26361e",
"# c #283820",
"i c #334a24",
"h c #374e27",
"b c #385028",
"c c #506840",
"................................",
"................................",
"................................",
"................................",
"................................",
"................................",
"................................",
"................................",
"................................",
"................................",
"................................",
"................................",
"................................",
"................................",
"................................",
"................................",
".................#a.............",
".................ba.............",
".............a..aca.............",
".............a..#ca..a..dd......",
".........a...ae.#c#..a..dd......",
".........a...aeefbc#.aa.dd......",
".........#a..ae#gbb#.aa.d.......",
".........b...aehbc#a.ea.d.......",
".........c#..aaibca..a#.d.......",
".........bc#.ajklc#aa##.d.......",
"..........#c#aaamb#a.ab#d.......",
"..........ab#anaa#a.a#bad.......",
"...........#baoapqraab#.d.......",
"............a#aosata##a.d.......",
".............a#aauaba...........",
"..............avwx#a............"};
